X: 131
T: the Wind That Shakes the Barley
R: reel
O: c.1800
N: May be an Irish variant of Largo's Fairy Dance Reel (Nathaniel Gow 1809)
B: Henry Robson's "The Northern Minstrel's Budget", c.1800
B: Joshua Gibbons (Lincolnshire) private MS c.1825
B: Surenne (Dance Music of Scotland), 1852; pg. 41
B: Stewart-Robertson (The Athole Collection), 1884; pg. 89
B: MacDonald (The Skye Collection), 1887; pg. 35
B: RSCDS 21-8(II) (in A)
Z: John Chambers <jc:trillian.mit.edu>
M: C|
L: 1/8
K: D
|: "D"A2AB AFED | "G"B2BA B2d2 | "D"A2AB AFED |1 "G"gfed "A7"B2d2 :|2 "G"gfed "A7"Bcde |]
|: "D"f2fd "G"g2ge | "D"f2fd "A7"ecBA |1 "D"f2fd "G"g2ge | "D"afed "A7"Bcde :|2 "D"defg "Bm"afba | "Em"gfed "A7"BcdB |]

%%sep 1 1 500

